src/Assets/Icons/Truck.svg

<svg viewBox="0 0 24 24" fill="none" xmlns="http://www.w3.org/2000/svg">
<circle cx="5.78261" cy="17.3913" r="1.91304" stroke="currentColor" stroke-width="2"/>
<circle cx="18.0261" cy="17.3913" r="1.91304" stroke="currentColor" stroke-width="2"/>
<path d="M15.8261 7.34783L15.8261 5C15.8261 4.44772 15.3784 4 14.8261 4H2C1.44772 4 1 4.44771 1 5V14.0435C1 14.3076 1.21412 14.5217 1.47826 14.5217V14.5217M15.8261 7.34783L15.869 14.5217M15.8261 7.34783H18.2174M20.7049 17.0911H22C22.5523 17.0911 23 16.6434 23 16.0911V12.6087M15.4618 17.0911H13.5205M8.44817 17.0911H10.087M3.26412 17.0911C3.26412 17.0911 2.22994 17.0911 1.56729 17.0911V17.0911C1.51812 17.0911 1.47826 17.0512 1.47826 17.0021V14.5217M1.47826 14.5217H10.087M15.8261 14.5217H15.869M10.087 17.0911V14.5217M10.087 17.0911H13.5205M10.087 14.5217H13.5205M13.5205 17.0911V14.5217M13.5205 14.5217H15.869M18.2174 7.34783H19.6522L21.6473 9.34293C22.5134 10.2091 23 11.3838 23 12.6087V12.6087M18.2174 7.34783V11.6087C18.2174 12.161 18.6651 12.6087 19.2174 12.6087H23" stroke="currentColor" stroke-width="2" stroke-linecap="round" stroke-linejoin="round"/>
</svg>

<?xml version="1.0" encoding="UTF-8"?>
<svg fill="none" viewBox="0 0 24 24" xmlns="http://www.w3.org/2000/svg">
<circle cx="5.7826" cy="17.391" r="1.913" stroke="currentColor" stroke-width="2"/>
<circle cx="18.026" cy="17.391" r="1.913" stroke="currentColor" stroke-width="2"/>
<path d="m15.826 7.3478v-2.3478c0-0.55228-0.4477-1-1-1h-12.826c-0.55228 0-1 0.44771-1 1v9.0435c0 0.2641 0.21412 0.4782 0.47826 0.4782v0m14.348-7.1739 0.0429 7.1739m-0.0429-7.1739h2.3913m2.4875 9.7433h1.2951c0.5523 0 1-0.4477 1-1v-3.4824m-7.5382 4.4824h-1.9413m-5.0723 0h1.6388m-6.8229 0h-1.6968v0c-0.04917 0-0.08903-0.0399-0.08903-0.089v-2.4804m0 0h8.6087m5.7391 0h0.0429m-5.782 2.5694v-2.5694m0 2.5694h3.4335m-3.4335-2.5694h3.4335m0 2.5694v-2.5694m0 0h2.3485m2.3484-7.1739h1.4348l1.9951 1.9951c0.8661 0.86617 1.3527 2.0409 1.3527 3.2658v0m-4.7826-5.2609v4.2609c0 0.5523 0.4477 1 1 1h3.7826" stroke="currentColor" stroke-linecap="round" stroke-linejoin="round" stroke-width="2"/>
</svg>
